usr/share/icons/biglinux-icons-material/scalable/mimetypes/text-x-scala.svg

<svg width="24" height="24" viewBox="0 0 24 24" fill="none" xmlns="http://www.w3.org/2000/svg">
<rect x="1" y="1" width="22" height="22" rx="6.6" fill="url(#paint0_radial_21_2322)"/>
<path d="M20 12C11.3302 15.1796 7.74473 14.9913 4 14.9091V20C9.35055 19.5425 14.7127 19.4335 20 17.0909V12.7273V12ZM19.2727 12.9956V16.5767C14.5345 18.5636 9.68073 18.8029 4.72727 19.2015V15.6415C8.08364 15.712 11.84 15.6051 19.2727 12.9956Z" fill="#892A1F"/>
<path d="M20 4C11.3302 7.17964 7.74473 6.99127 4 6.90909V12C9.35055 11.5425 14.7127 11.4335 20 9.09091V4.72727V4ZM19.2727 4.99564V8.57673C14.5345 10.5636 9.68073 10.8029 4.72727 11.2015V7.64145C8.08364 7.712 11.84 7.60509 19.2727 4.99564Z" fill="#892A1F"/>
<defs>
<radialGradient id="paint0_radial_21_2322" cx="0" cy="0" r="1" gradientUnits="userSpaceOnUse" gradientTransform="translate(17.5 1) rotate(116.565) scale(24.5967)">
<stop stop-color="#F4F4F4"/>
<stop offset="1" stop-color="#BBBBBB"/>
</radialGradient>
</defs>
</svg>

<svg xmlns="http://www.w3.org/2000/svg" width="24" height="24" fill="none"><rect width="22" height="22" x="1" y="1" fill="url(#a)" rx="6.6"/><path fill="#892A1F" d="M20 12c-8.67 3.18-12.255 2.991-16 2.91V20c5.35-.457 10.713-.567 16-2.91V12Zm-.727.996v3.58c-4.739 1.988-9.592 2.227-14.546 2.625v-3.56c3.357.071 7.113-.036 14.546-2.645ZM20 4C11.33 7.18 7.745 6.991 4 6.91V12c5.35-.457 10.713-.566 16-2.91V4Zm-.727.996v3.58c-4.739 1.988-9.592 2.227-14.546 2.625v-3.56c3.357.071 7.113-.036 14.546-2.645Z"/><defs><radialGradient id="a" cx="0" cy="0" r="1" gradientTransform="rotate(116.565 8.441 5.908) scale(24.5967)" gradientUnits="userSpaceOnUse"><stop stop-color="#F4F4F4"/><stop offset="1" stop-color="#BBB"/></radialGradient></defs></svg>
